X:1
T:Title
%%score { ( 1 3 ) | ( 2 4 ) }
L:1/8
M:4/4
K:G
V:1 treble nm="Grand Piano"
V:3 treble 
V:2 bass 
V:4 bass 
V:1
 z4 z2 z[Q:1/4=100] [DB] | [DB]3 [CA] [B,G][B,D][_B,^C][=B,D] | [DF]2 [CE]2 [CE]2 z [Ec] | %3
 [Ec]3 [DB] [A,EA][A,E][A,EA][A,EG] | [A,DF]2 [G,^CE]2 [A,D]2 z [Fd] | d3 B cBAG | %6
 [EA]2 [EG]2 [DF]2 E2 | DFA[Fd] [Fc]2 [CDF]2 |[M:7/8] [B,DG]-[B,DG]-[B,DG]- [B,DG]3 z |[M:1/8] d | %10
[M:4/4] d2 e2 d[FA][Fd][Fc] | [DGB]4- [DGB]BBB | e d3 B2 A2 | [DFA]6 D2 | E2 B,2 D2 GB | d4 z4 | %16
 [CEA][Ec][B,EB][CEA] [B,DG]2 [CDA]2 |[M:7/8] [B,DG]-[B,DG]-[B,DG]- [B,DG]3 z |] %18
V:2
 z4 z2 z [G,,G,] | [G,,G,]3 [G,,G,] [G,,G,][G,,G,][G,,G,][G,,G,] | %2
 [C,G,]2 [C,G,]2 [C,G,]2 z [A,,A,] | [A,,A,]3 [B,,^G,] C,C,^C,C, | D,2 E,2 F,2 z [D,C] | %5
 [G,B,G]3 [G,DG] [G,EG][G,DG][G,CD][K:bass][G,B,D] | [C,C]2 [C,C]2 [C,G,]2 [C,G,C]2 | %7
 [D,F,C][D,A,C][D,F,D]D, [D,A,]2 D,2 |[M:7/8] G,,-G,,-G,,- G,,3 z |[M:1/8] [D,D] | %10
[M:4/4] [D,D]2 [E,E]2 [D,D][D,D][D,D][D,D] | G,D,G,A, B,[K:treble][A,DG][G,DG][G,DG] | %12
 [G,CG] [G,B,G]3 [A,^CG]2 [A,CG]2 | D,6 D,2 | E,2 B,,2 D,2 [G,B,D]2 | A,-[E,A,-][F,A,]D, G,4 | %16
 C,[C,A,]C,C, D,2 D,2 |[M:7/8] G,,-G,,-G,,- G,,3 z |] %18
V:3
 x8 | x8 | x8 | x8 | x8 | x8 | x8 | x8 |[M:7/8] x7 |[M:1/8] x |[M:4/4] x8 | x8 | x8 | x8 | x8 | %15
 FGA[DFc] [DGB]4 | x8 |[M:7/8] x7 |] %18
V:4
 x8 | x8 | x8 | x8 | x8 | x7[K:bass] x | x8 | x8 |[M:7/8] x7 |[M:1/8] x |[M:4/4] x8 | %11
 x5[K:treble] x3 | x8 | x8 | x8 | .D,2 z2 z4 | x8 |[M:7/8] x7 |] %18

